dist/images/partners/lada.svg

<svg width="107" height="80" viewBox="0 0 107 80" fill="none" xmlns="http://www.w3.org/2000/svg">
<path d="M55.5937 1.11731C56.3987 1.16057 57.2043 1.19901 58.009 1.24808C60.2485 1.38455 62.4948 1.45454 64.7251 1.68201C67.7028 1.98571 70.6837 2.31822 73.635 2.80637C80.491 3.94037 87.1708 5.70467 93.4718 8.69202C96.5069 10.1309 99.3684 11.8412 101.828 14.1479C103.645 15.8518 105.134 17.7823 105.832 20.2061C106.605 22.8927 106.18 25.4386 104.782 27.8404C103.489 30.0642 101.661 31.7977 99.6078 33.3139C96.6509 35.4978 93.3781 37.1057 89.9641 38.4487C85.6145 40.1597 81.1286 41.4139 76.5354 42.2751C73.9199 42.7654 71.2931 43.2252 68.6527 43.5491C65.936 43.8823 63.2004 44.1094 60.466 44.2443C57.3796 44.3966 54.2847 44.4662 51.1946 44.4363C48.622 44.4116 46.0478 44.2358 43.4807 44.0434C41.2273 43.8746 38.9728 43.6572 36.7369 43.3377C34.2661 42.9848 31.8046 42.5453 29.3589 42.0472C24.7799 41.1143 20.3073 39.8127 15.9919 38.0117C12.6561 36.6196 9.47012 34.9632 6.63374 32.7078C4.73637 31.1989 3.07935 29.4764 1.95901 27.3062C1.40276 26.2286 1.01292 25.0953 0.898776 23.8796C0.885406 23.7377 0.825074 23.5997 0.786621 23.4599C0.786621 23.0219 0.786621 22.5838 0.786621 22.1457C0.885628 21.6474 0.967838 21.1452 1.08662 20.6517C1.6464 18.3276 2.94653 16.4298 4.5987 14.7446C6.86965 12.4281 9.56924 10.7048 12.4498 9.2437C18.154 6.35021 24.2398 4.59116 30.4891 3.33066C34.0009 2.62226 37.5397 2.07487 41.1122 1.78299C43.7319 1.56899 46.3572 1.42101 48.9804 1.24885C49.7846 1.19595 50.59 1.16068 51.3948 1.11731C52.7945 1.11731 54.194 1.11731 55.5937 1.11731ZM25.2785 36.0069C25.7106 35.8924 25.851 35.6346 25.9765 35.3606C26.2497 34.7633 26.5219 34.1656 26.7971 33.5692C27.0087 33.1104 27.3534 32.8557 27.8805 32.8838C28.0826 32.8946 28.2858 32.8913 28.4873 32.9092C30.1354 33.0557 31.7805 33.2453 33.4314 33.3458C36.1853 33.5136 38.9414 33.6866 41.6989 33.7421C44.3658 33.7958 47.0374 33.7517 49.7037 33.6602C51.7781 33.5891 53.8563 33.4518 55.9172 33.2127C58.6266 32.8983 60.9109 31.6629 62.8011 29.7186C63.387 29.1159 63.4352 28.6297 62.9992 27.8932C62.6736 27.3427 62.3245 26.8057 61.9951 26.2574C61.6203 25.6338 61.6636 25.3844 62.2427 24.9692C63.8237 23.8358 65.4123 22.7129 66.9941 21.5811C67.3976 21.2923 67.8309 21.1553 68.3345 21.1769C70.2097 21.2571 72.0856 21.3173 73.961 21.3901C75.7442 21.4591 77.5278 21.5259 79.3103 21.6116C79.9934 21.6444 80.2169 21.9813 80.0144 22.6413C79.7951 23.3556 79.5576 24.0648 79.3125 24.7708C79.0399 25.5563 78.7277 25.7374 77.8918 25.6126C76.8928 25.4634 75.887 25.3449 74.8988 25.1428C73.8293 24.9239 72.9193 25.1254 72.076 25.8297C71.1364 26.6144 71.1349 26.8738 72.1185 27.5904C73.1404 28.3348 74.1547 29.0938 75.126 29.9012C75.9942 30.6227 76.2876 31.6076 76.1628 32.7097C76.12 33.0877 76.0637 33.4741 75.9394 33.8313C75.5807 34.8638 75.1814 35.8824 74.8051 36.9092C74.7336 37.1043 74.6952 37.3113 74.6481 37.4884C74.9748 37.7682 75.2669 37.8479 75.6224 37.7509C76.2416 37.5819 76.8708 37.4491 77.4904 37.2812C81.564 36.1772 85.5153 34.7691 89.1697 32.6317C91.2444 31.4182 93.1482 29.9958 94.659 28.1101C95.7811 26.7098 96.5445 25.1463 96.6798 23.3428C96.8236 21.4252 96.1841 19.7196 95.1035 18.1597C93.8743 16.3852 92.2566 15.0084 90.4583 13.8432C85.1685 10.4154 79.2353 8.65545 73.1314 7.35574C72.9497 7.31707 72.7395 7.40995 72.468 7.45344C72.5848 7.72615 72.6455 7.89394 72.7261 8.05186C73.831 10.2172 73.7001 12.332 72.3249 14.3119C71.6406 15.2972 70.8489 16.2329 69.9837 17.0667C66.3355 20.5823 62.2217 23.4953 57.8553 26.0647C55.027 27.7288 51.9829 28.8302 48.7329 29.3307C46.2057 29.7197 43.6574 29.9121 41.1021 30.0356C37.3483 30.2168 33.5965 30.2279 29.8441 30.0297C28.6753 29.9679 28.5577 29.7647 29.0536 28.6904C32.1057 22.0806 35.1585 15.4708 38.2101 8.86069C38.3159 8.63157 38.412 8.39817 38.5207 8.14846C38.1274 7.59834 37.6316 7.20109 37.0821 6.87307C36.9599 6.80012 36.7584 6.81831 36.6025 6.84536C32.7978 7.50491 29.0484 8.38667 25.4005 9.65561C22.2505 10.7513 19.2089 12.0786 16.4396 13.9543C14.5085 15.2622 12.7641 16.7654 11.5604 18.7931C10.1573 21.1562 9.9594 23.5962 11.1454 26.1074C11.7787 27.4484 12.6945 28.5859 13.7707 29.5968C16.0026 31.6934 18.6257 33.1934 21.4117 34.4272C22.6839 34.9906 23.9884 35.4826 25.2785 36.0069ZM40.4776 10.1114C38.318 15.1956 36.1991 20.1834 34.0306 25.2886C34.3508 25.3143 34.5454 25.3786 34.7121 25.3358C36.2278 24.9477 37.6322 24.3379 38.7392 23.1971C39.2485 22.6721 39.7543 22.1388 40.2104 21.5689C41.4492 20.0208 42.528 18.3711 43.1842 16.4897C43.6325 15.2046 43.6582 13.9197 42.9954 12.6777C42.4964 11.7425 41.7246 11.0322 40.9858 10.2972C40.8888 10.2006 40.7042 10.1904 40.4776 10.1114ZM61.2881 5.17174C61.233 5.23614 61.1779 5.30042 61.1227 5.36482C61.2701 5.55321 61.4048 5.75297 61.5668 5.92811C63.0015 7.47982 63.5997 9.27809 63.1907 11.3658C62.9499 12.5944 62.3421 13.6481 61.5463 14.6029C58.9755 17.6878 56.0402 20.3728 52.7014 22.6323C48.0468 25.7821 42.9214 27.5223 37.2937 27.8116C35.8241 27.8871 34.3545 27.9613 32.8855 28.0458C32.5661 28.0642 32.2296 28.0623 31.912 28.3521C32.0892 28.4196 32.2141 28.4973 32.346 28.5117C32.766 28.5578 33.1889 28.6101 33.6104 28.6072C36.0579 28.5903 38.4957 28.4378 40.9226 28.1036C43.0042 27.8168 45.0479 27.3866 46.9929 26.5842C53.1466 24.0451 58.1464 19.9984 62.3508 14.9377C63.3652 13.7169 63.9512 12.2825 64.0473 10.685C64.1726 8.6043 63.4481 6.8619 61.864 5.48486C61.7033 5.345 61.4815 5.27436 61.2881 5.17174ZM51.7304 4.90592C51.692 4.95817 51.6537 5.0103 51.6155 5.06255C51.7269 5.23965 51.8292 5.4231 51.9512 5.59264C52.528 6.39369 53.1416 7.17054 53.6829 7.99426C54.4732 9.19704 54.7939 10.5266 54.5729 11.9599C54.3972 13.0992 53.8997 14.1122 53.2615 15.0591C51.5154 17.6498 49.4702 19.9831 47.1343 22.0713C45.1471 23.8478 42.9156 25.1618 40.3005 25.8057C38.0134 26.3688 35.6917 26.7143 33.3498 26.9462C33.0207 26.9788 32.6543 26.9299 32.3853 27.2559C32.698 27.5301 33.0628 27.4719 33.3947 27.4726C35.5744 27.4768 37.7107 27.1318 39.8389 26.6929C41.8844 26.2709 43.7527 25.4693 45.4793 24.3109C47.7088 22.8153 49.6022 20.9612 51.3462 18.9487C52.5577 17.5506 53.7381 16.1226 54.6254 14.4922C55.4418 12.9921 55.8533 11.4061 55.3832 9.70412C54.8574 7.8004 53.5986 6.38 52.1885 5.07141C52.0796 4.97011 51.8851 4.95905 51.7304 4.90592Z" fill="#898989"/>
<path d="M51.6733 78.8722C51.6733 70.2518 51.6733 61.6834 51.6733 53.0493C51.8667 53.0322 52.0592 53.0004 52.2514 53.0003C56.5773 52.9974 60.9032 53.0152 65.229 52.9939C70.7639 52.9669 75.5812 56.5233 76.8914 62.3434C77.6723 65.8129 77.4517 69.2146 75.8779 72.4229C74.1383 75.9691 71.2285 78.0819 67.2926 78.7537C66.6799 78.8583 66.0497 78.9032 65.4274 78.9049C61.0832 78.9177 56.739 78.9122 52.3946 78.9099C52.1619 78.9098 51.9291 78.8862 51.6733 78.8722ZM58.4884 57.7632C58.3222 58.4281 58.3584 73.7264 58.5329 74.1734C58.7138 74.1734 58.914 74.1734 59.1141 74.1734C60.5683 74.1734 62.0236 74.2079 63.4766 74.1659C66.2252 74.0865 68.3301 72.8734 69.5655 70.4226C70.7752 68.0226 70.8738 65.4803 70.1263 62.9196C69.161 59.6119 66.6089 57.7367 63.1498 57.7361C61.7876 57.7359 60.4253 57.7351 59.0633 57.7373C58.8665 57.7378 58.6695 57.7547 58.4884 57.7632Z" fill="#898989"/>
<path d="M21.8687 78.8685C25.0421 70.2252 28.1921 61.6463 31.3516 53.0406C34.5448 53.0406 37.7035 53.0406 40.9027 53.0406C44.06 61.636 47.2122 70.2174 50.3876 78.862C48.1507 78.862 45.9736 78.862 43.7333 78.862C43.156 77.304 42.5699 75.7228 41.9775 74.1245C38.0829 74.1245 34.221 74.1245 30.2802 74.1245C29.6997 75.6887 29.1127 77.2705 28.5195 78.8685C26.3084 78.8685 24.1292 78.8685 21.8687 78.8685ZM32.0313 69.3389C34.809 69.3389 37.4686 69.3389 40.2253 69.3389C38.8671 65.6394 37.5306 61.9993 36.1941 58.3592C36.148 58.3647 36.1018 58.3702 36.0557 58.3758C34.7228 62.007 33.3898 65.6383 32.0313 69.3389Z" fill="#898989"/>
<path d="M81.7103 78.8696C79.4769 78.8696 77.2963 78.8696 75.0547 78.8696C78.2268 70.2311 81.3781 61.6493 84.5389 53.0413C87.7202 53.0413 90.8637 53.0413 94.0912 53.0413C97.2362 61.6065 100.392 70.2001 103.572 78.8623C101.317 78.8623 99.1399 78.8623 96.9167 78.8623C96.3372 77.2939 95.7575 75.7249 95.1685 74.1309C91.2661 74.1309 87.3894 74.1309 83.4634 74.1309C82.8836 75.6981 82.3038 77.2658 81.7103 78.8696ZM89.3849 58.367C89.3401 58.3631 89.295 58.3594 89.2502 58.3556C87.9126 61.9975 86.5749 65.6395 85.2208 69.3261C87.9888 69.3261 90.6603 69.3261 93.4093 69.3261C92.0521 65.6301 90.7185 61.9985 89.3849 58.367Z" fill="#898989"/>
<path d="M10.1357 74.1663C13.7605 74.1663 17.2845 74.1663 20.8378 74.1663C20.8378 75.7642 20.8378 77.2878 20.8378 78.8616C15.053 78.8616 9.28711 78.8616 3.48242 78.8616C3.48242 70.2592 3.48242 61.6892 3.48242 53.1214C3.8643 52.9744 9.27229 52.9222 10.1357 53.0669C10.1357 60.0547 10.1357 67.0539 10.1357 74.1663Z" fill="#898989"/>
</svg>

<svg width="107" height="80" fill="none" xmlns="http://www.w3.org/2000/svg"><path d="M55.594 1.117c.805.044 1.61.082 2.415.131 2.24.137 4.486.207 6.716.434 2.978.304 5.959.636 8.91 1.124 6.856 1.134 13.536 2.899 19.837 5.886 3.035 1.439 5.896 3.15 8.356 5.456 1.817 1.704 3.306 3.634 4.004 6.058.773 2.687.348 5.233-1.05 7.634-1.293 2.224-3.121 3.958-5.174 5.474-2.957 2.184-6.23 3.792-9.644 5.135-4.35 1.71-8.835 2.965-13.429 3.826-2.615.49-5.242.95-7.882 1.274-2.717.333-5.453.56-8.187.695a157.33 157.33 0 01-9.271.192c-2.573-.024-5.147-.2-7.714-.393a100.823 100.823 0 01-6.744-.705c-2.47-.353-4.932-.793-7.378-1.29-4.58-.934-9.052-2.235-13.367-4.036-3.336-1.392-6.522-3.049-9.358-5.304-1.898-1.51-3.555-3.232-4.675-5.402-.556-1.077-.946-2.21-1.06-3.426-.014-.142-.074-.28-.112-.42v-1.314c.099-.499.18-1 .3-1.494.56-2.324 1.86-4.222 3.512-5.907 2.27-2.317 4.97-4.04 7.85-5.501C18.155 6.35 24.24 4.59 30.49 3.33c3.512-.709 7.05-1.256 10.623-1.548 2.62-.214 5.245-.362 7.868-.534.805-.053 1.61-.088 2.415-.132h4.199zm-30.316 34.89c.433-.115.573-.372.699-.646.273-.598.545-1.195.82-1.792.212-.459.556-.713 1.084-.685.202.01.405.007.606.025 1.648.147 3.294.336 4.944.437 2.754.168 5.51.34 8.268.396 2.667.054 5.338.01 8.005-.082a76.787 76.787 0 006.213-.447c2.71-.315 4.994-1.55 6.884-3.494.586-.603.634-1.09.198-1.826-.325-.55-.675-1.087-1.004-1.636-.375-.623-.331-.873.248-1.288 1.58-1.133 3.17-2.256 4.751-3.388a2.065 2.065 0 011.34-.404c1.876.08 3.752.14 5.627.213 1.783.07 3.567.136 5.35.222.682.032.906.37.703 1.03a61.84 61.84 0 01-.701 2.129c-.273.785-.585.966-1.421.842-1-.15-2.005-.268-2.993-.47-1.07-.22-1.98-.018-2.823.687-.94.784-.941 1.044.043 1.76a59.37 59.37 0 013.007 2.311c.868.722 1.162 1.707 1.037 2.809-.043.378-.1.764-.224 1.121-.358 1.033-.758 2.051-1.134 3.078-.071.195-.11.402-.157.58.327.28.619.359.974.262.62-.17 1.249-.302 1.868-.47 4.074-1.104 8.025-2.512 11.68-4.65 2.074-1.213 3.978-2.635 5.489-4.52 1.122-1.401 1.885-2.965 2.02-4.768.145-1.918-.495-3.623-1.576-5.183-1.229-1.775-2.846-3.152-4.645-4.317-5.29-3.428-11.223-5.188-17.327-6.487-.181-.039-.391.054-.663.097.117.273.177.44.258.599 1.105 2.165.974 4.28-.401 6.26a18.509 18.509 0 01-2.341 2.755c-3.648 3.515-7.762 6.428-12.129 8.998a25.518 25.518 0 01-9.122 3.266c-2.527.389-5.076.581-7.63.705-3.755.18-7.507.192-11.259-.006-1.169-.062-1.286-.265-.79-1.34L38.21 8.86c.106-.228.202-.462.31-.712-.393-.55-.888-.947-1.438-1.275-.122-.073-.324-.055-.48-.028-3.804.66-7.554 1.542-11.201 2.81-3.15 1.096-6.192 2.424-8.961 4.3-1.932 1.307-3.676 2.81-4.88 4.838-1.403 2.363-1.6 4.803-.415 7.314.634 1.341 1.55 2.479 2.626 3.49 2.232 2.096 4.855 3.596 7.64 4.83 1.273.564 2.577 1.056 3.867 1.58zm15.2-25.896L34.03 25.29c.32.025.514.09.681.047 1.516-.388 2.92-.998 4.027-2.139a22.861 22.861 0 001.471-1.628c1.24-1.548 2.318-3.198 2.974-5.08.449-1.284.474-2.57-.189-3.811-.499-.936-1.27-1.646-2.01-2.38-.096-.097-.28-.108-.507-.187zm20.81-4.94l-.165.194c.147.188.282.388.444.563C63 7.48 63.6 9.278 63.19 11.366c-.241 1.228-.849 2.282-1.645 3.237a42.406 42.406 0 01-8.845 8.03c-4.654 3.15-9.78 4.89-15.407 5.179-1.47.075-2.94.15-4.408.234-.32.018-.656.016-.974.306.177.068.302.145.434.16.42.046.843.098 1.264.095a56.378 56.378 0 007.313-.503c2.081-.287 4.125-.717 6.07-1.52 6.154-2.539 11.153-6.586 15.358-11.646 1.014-1.221 1.6-2.655 1.696-4.253.126-2.08-.599-3.823-2.183-5.2-.16-.14-.383-.21-.576-.313zm-9.558-.265a78 78 0 00-.114.157c.11.177.213.36.335.53.577.8 1.19 1.578 1.732 2.401.79 1.203 1.11 2.533.89 3.966-.176 1.14-.673 2.152-1.312 3.1a37.452 37.452 0 01-6.127 7.011c-1.987 1.777-4.218 3.09-6.834 3.735-2.287.563-4.608.908-6.95 1.14-.33.033-.696-.016-.965.31.313.274.678.216 1.01.217 2.18.004 4.316-.341 6.444-.78a15.723 15.723 0 005.64-2.382c2.23-1.496 4.123-3.35 5.867-5.362 1.212-1.398 2.392-2.826 3.28-4.457.816-1.5 1.227-3.086.757-4.788C54.857 7.8 53.6 6.38 52.188 5.071c-.108-.1-.303-.112-.458-.165zm-.057 73.966V53.05c.194-.017.386-.049.578-.049 4.326-.003 8.652.015 12.978-.006 5.535-.027 10.352 3.53 11.662 9.35.781 3.469.56 6.87-1.013 10.079-1.74 3.546-4.65 5.659-8.585 6.33a11.31 11.31 0 01-1.866.152c-4.344.013-8.688.007-13.032.005-.233 0-.466-.024-.722-.038zm6.815-21.109c-.166.665-.13 15.963.045 16.41h.581c1.454 0 2.91.035 4.363-.007 2.748-.08 4.853-1.293 6.089-3.743 1.21-2.4 1.308-4.943.56-7.503-.965-3.308-3.517-5.183-6.976-5.184l-4.087.001c-.197 0-.394.018-.575.026zM21.869 78.868l9.483-25.827h9.55l9.486 25.821h-6.655l-1.755-4.737H30.28l-1.76 4.743h-6.651zm10.162-9.53h8.194l-4.03-10.979-.14.017-4.024 10.963zM81.71 78.87h-6.655l9.484-25.829h9.552l9.481 25.821h-6.655l-1.749-4.731H83.463L81.71 78.87zm7.675-20.503l-.135-.011-4.03 10.97h8.19l-4.025-10.959zM10.136 74.166h10.702v4.696H3.482v-25.74c.382-.148 5.79-.2 6.654-.055v21.1z" fill="#898989"/></svg>
